assets/notification-close.svg

<svg width="14" height="13" viewBox="0 0 14 13" fill="none" xmlns="http://www.w3.org/2000/svg">
<path d="M13.1788 12.6169C12.847 12.9486 12.3084 12.9486 11.9766 12.6169L7.16772 7.80853L2.35884 12.6169C2.02702 12.9486 1.48843 12.9486 1.15662 12.6169C0.824803 12.2851 0.824803 11.7465 1.15662 11.4148L5.9655 6.60644L1.15662 1.79812C0.824803 1.46634 0.824803 0.927811 1.15662 0.596037C1.48843 0.264262 2.02702 0.264262 2.35884 0.596037L7.16772 5.40436L11.9766 0.596037C12.3084 0.264262 12.847 0.264262 13.1788 0.596037C13.5106 0.927811 13.5106 1.46634 13.1788 1.79812L8.36995 6.60644L13.1788 11.4148C13.5106 11.7465 13.5106 12.2851 13.1788 12.6169Z" fill="white"/>
</svg>

<svg width="14" height="13" viewBox="0 0 14 13" fill="none" xmlns="http://www.w3.org/2000/svg"><path d="M13.179 12.617a.85.85 0 01-1.202 0l-4.81-4.808-4.808 4.808a.85.85 0 01-1.202-1.202l4.808-4.809-4.808-4.808A.85.85 0 012.359.596l4.809 4.808L11.977.596a.85.85 0 011.202 1.202l-4.81 4.808 4.81 4.809a.85.85 0 010 1.202z" fill="currentColor"/></svg>
